X:14
T:Rising Sun, The
M:6/4
L:1/4
Q:3/4=85
S:D.Wright, Extraordinary Collection, London 1713
Z:Pete Stewart, 2004 <www.hornpipemusic.co.uk>
K:F
f/g/ | a>gfgec | f>edcB/A/G/F/ | E/F/GGG2A |
B/A/B/c/d/e/fdB | cAFGEC | D/E/FFF2 ||
G/F/ | E/F/GEcGB | AFfe/f/gG | E/F/GGG2A |
BdBdBd | g>ag/f/ee/f/g | a2ff2 |]

